X:1
T:Title
%%score ( 1 2 ) { 3 | 4 }
L:1/8
Q:1/4=110
M:6/8
K:A
V:1 treble nm="Grand Piano, Soprano"
V:2 treble 
V:3 bass nm="Choir Pad, Bass"
V:4 bass 
V:1
 E A2 B A2 | F E2- E/ z/ [CA]2 | [DB] [Ec]2 [Fd] [Ec]2 | [DB] [CA]2- [CA]2- [CA]/ z/ | %4
w: By~John~Bunyan~Herbert * * *||||
 [EG] [DF]2 [D^E] [DF]2 | [DG] [DA]2 [DG] [DA]2 | [DB] [^Dc]2 [DB] [DB]2 | z B2- B3- | B3 z3 | z6 | %10
w: ||||||
 [DB] [Ec]2 [Ec] [Fd]2- | [Fd] [Ec]2- [Ec]2- [Ec]/ z/ | z [EB]2- [EB] [Ec]2- | %13
w: |||
 [Ec] [EB]2- [EB] [EB]2 | [FA][EG][^DF] E [CF]2 | [^DB] E2- E2- E/ z/ | z3 z .A2 | %17
w: ||||
 [Ac] [Gd]2- [Gd]2- [Gd]/ z/ | [GB] [ce]2- [ce]3 | [Bd] [Ac]2 [EB] [EA]2- | [EA] [FA]2 [FA] [FA]2 | %21
w: ||||
 [FA] [DB]2 [DA] [DG]2 | [DF][CE][EA]- [EA] [EB]2- | [EB] [EA]2- [EA]3- | [EA]3 z3 |] %25
w: ||||
V:2
 x6 | x6 | x6 | x6 | x6 | x6 | x6 | [^Dc] E2- E =D2- | D [CE]2- [CE] [DF]2- | %9
 [DF] [CE]2- [CE] [CA]2 | x6 | x6 | x6 | x6 | x6 | x6 | z E[EF] [EG]E-[EB] | x6 | x6 | x6 | x6 | %21
 x6 | x6 | x6 | x6 |] %25
V:3
 E, A,2 B, A,2 | F, E,2- E,/ z/ E,2 | E, A,2 A, A,2 | E, E,2- E,2- E,/ z/ | A, A,2 B, A,2 | %5
 G, F,2 ^E, F,2 | F, F,2 F, A,2 | A, G,2- G,3- | G, A,2- A, A,2- | A, A,2- A, E,2 | %10
 E, A,2 A, A,2- | A, A,2- A,2- A,/ z/ | z G,2- G, A,2- | A, G,2- G, B,2 | CB,A, G, A,2 | %15
 A, G,2- G,2- G,/ z/ | z G,A, B,CB, | A, B,2[K:treble] E E2- | E3 E E2 | E E2 D C2- | C D2 D D2 | %21
 D[K:bass] F,2 F, B,2 | A,A,[K:treble]C- C D2- | D C2- C3- | C3 z3 |] %25
V:4
 z6 | z3 z A,,2 | A,, A,,2 A,, A,,2 | A,, A,,2- A,,2- A,,/ z/ | C, D,2 D, D,2 | D, D,2 D, D,2 | %6
 D, B,,2 B,, B,,2 | B,, E,2- E,3- | E, A,,2- A,, A,,2- | A,, A,,2- A,, A,,2 | A,, A,,2 A,, D,2- | %11
 D, A,,2- A,,2- A,,/ z/ | z E,2- E, E,2- | E, E,2- E, G,,2 | A,,B,,B,, B,, B,,2 | %15
 B,, E,2- E,2- E,/ z/ | z E,E, E, E,2 | E, E,2 E, E,2- | E,3 E,E,F, | G, A,2 A, A,2- | %20
 A, D,2 D, D,2 | D, D,2 D, D,2 | D,E,E,- E, E,2- | E, A,,2- A,,3- | A,,3 z3 |] %25

